SVG_Azure_All/O365 - Delve.svg

<?xml version="1.0" encoding="UTF-8" standalone="no"?>
<!-- Generated by Microsoft Visio, SVG Export O365 - Delve.svg Page-1 -->

<svg
   xmlns:dc="http://purl.org/dc/elements/1.1/"
   xmlns:cc="http://creativecommons.org/ns#"
   xmlns:rdf="http://www.w3.org/1999/02/22-rdf-syntax-ns#"
   xmlns:svg="http://www.w3.org/2000/svg"
   xmlns="http://www.w3.org/2000/svg"
   xmlns:sodipodi="http://sodipodi.sourceforge.net/DTD/sodipodi-0.dtd"
   xmlns:inkscape="http://www.inkscape.org/namespaces/inkscape"
   width="0.78740036in"
   height="0.78740036in"
   viewBox="0 0 56.6929 56.692577"
   xml:space="preserve"
   class="st9"
   version="1.1"
   id="svg61"
   sodipodi:docname="O365 - Delve.svg"
   style="font-size:12px;overflow:visible;color-interpolation-filters:sRGB;fill:none;fill-rule:evenodd;stroke-linecap:square;stroke-miterlimit:3"
   inkscape:version="0.92.5 (2060ec1f9f, 2020-04-08)"><metadata
   id="metadata67"><rdf:RDF><cc:Work
       rdf:about=""><dc:format>image/svg+xml</dc:format><dc:type
         rdf:resource="http://purl.org/dc/dcmitype/StillImage" /></cc:Work></rdf:RDF></metadata><defs
   id="defs65" /><sodipodi:namedview
   pagecolor="#ffffff"
   bordercolor="#666666"
   borderopacity="1"
   objecttolerance="10"
   gridtolerance="10"
   guidetolerance="10"
   inkscape:pageopacity="0"
   inkscape:pageshadow="2"
   inkscape:window-width="640"
   inkscape:window-height="480"
   id="namedview63"
   showgrid="false"
   inkscape:zoom="1.6228336"
   inkscape:cx="37.795284"
   inkscape:cy="27.358099"
   inkscape:window-x="0"
   inkscape:window-y="0"
   inkscape:window-maximized="0"
   inkscape:current-layer="svg61" />
	<style
   type="text/css"
   id="style2">
	<![CDATA[
		.st1 {fill:#d23062;stroke:none;stroke-linecap:butt;stroke-width:18.3596}
		.st2 {fill:#8c193f;stroke:none;stroke-linecap:butt;stroke-width:18.3596}
		.st3 {fill:none;stroke:none;stroke-linecap:butt;stroke-width:18.3596}
		.st4 {fill:#e8467c;stroke:none;stroke-linecap:butt;stroke-width:18.3596}
		.st5 {fill:#bc1948;stroke:none;stroke-linecap:butt;stroke-width:18.3596}
		.st6 {fill:#000000;fill-opacity:0.098;stroke:none;stroke-linecap:butt;stroke-width:18.3596}
		.st7 {fill:#000000;fill-opacity:0.2;stroke:none;stroke-linecap:butt;stroke-width:18.3596}
		.st8 {fill:#ffffff;stroke:none;stroke-linecap:butt;stroke-width:18.3596}
		.st9 {fill:none;fill-rule:evenodd;font-size:12px;overflow:visible;stroke-linecap:square;stroke-miterlimit:3}
	]]>
	</style>

	<g
   id="g59"
   transform="translate(-18.3596,-18.36001)">
		<title
   id="title4">Page-1</title>
		<g
   id="group2660-1"
   transform="translate(18.3596,-34.0157)">
			<title
   id="title6">O365 - Delve</title>
			<g
   id="shape2661-2"
   transform="translate(10.6299,-28.3465)">
				<title
   id="title8">path2</title>
				<path
   d="M 42.52,86.62 A 2.3563,2.3563 -180 0 0 40.16,84.27 H 2.36 A 2.3563,2.3563 -180 0 0 0,86.62 v 22.45 h 42.52 z"
   class="st1"
   id="path10"
   inkscape:connector-curvature="0"
   style="fill:#d23062;stroke:none;stroke-width:18.35960007;stroke-linecap:butt" />
			</g>
			<g
   id="shape2662-4"
   transform="translate(10.6299,-3.54331)">
				<title
   id="title13">path4</title>
				<path
   d="m 0,84.27 v 22.44 a 2.3563,2.3563 -180 0 0 2.36,2.36 h 37.8 a 2.3563,2.3563 -180 0 0 2.36,-2.36 V 84.27 Z"
   class="st2"
   id="path15"
   inkscape:connector-curvature="0"
   style="fill:#8c193f;stroke:none;stroke-width:18.35960007;stroke-linecap:butt" />
			</g>
			<g
   id="shape2663-6">
				<title
   id="title18">path6</title>
				<rect
   x="0"
   y="52.375401"
   width="56.692902"
   height="56.692902"
   class="st3"
   id="rect20"
   style="fill:none;stroke:none;stroke-width:18.35960007;stroke-linecap:butt" />
			</g>
			<g
   id="shape2664-8"
   transform="translate(10.6299,-10.6299)">
				<title
   id="title23">path8</title>
				<path
   d="M 43.74,109.07 H 0 V 91.35 h 42.52 l 3.47,14.88 a 2.31555,2.31555 0 0 1 -2.25,2.84 z"
   class="st4"
   id="path25"
   inkscape:connector-curvature="0"
   style="fill:#e8467c;stroke:none;stroke-width:18.35960007;stroke-linecap:butt" />
			</g>
			<g
   id="shape2665-10"
   transform="translate(10.6299,-28.3465)">
				<title
   id="title28">path10</title>
				<path
   d="M 43.74,91.35 H 0 v 17.72 h 42.52 l 3.47,-14.88 a 2.31555,2.31555 -180 0 0 -2.25,-2.84 z"
   class="st5"
   id="path30"
   inkscape:connector-curvature="0"
   style="fill:#bc1948;stroke:none;stroke-width:18.35960007;stroke-linecap:butt" />
			</g>
			<g
   id="shape2666-12"
   transform="translate(10.6299,-10.6299)">
				<title
   id="title33">path12</title>
				<path
   d="M 18.9,75.41 H 0 v 33.66 h 18.9 a 2.3687,2.3687 -180 0 0 2.36,-2.36 V 77.77 A 2.3687,2.3687 -180 0 0 18.9,75.41 Z"
   class="st6"
   id="path35"
   inkscape:connector-curvature="0"
   style="fill:#000000;fill-opacity:0.09800002;stroke:none;stroke-width:18.35960007;stroke-linecap:butt" />
			</g>
			<g
   id="shape2667-14"
   transform="translate(10.6299,-12.4016)">
				<title
   id="title38">path14</title>
				<path
   d="M 17.13,78.95 H 0 v 30.12 h 17.13 a 2.3687,2.3687 -180 0 0 2.36,-2.36 v -25.4 a 2.3687,2.3687 -180 0 0 -2.36,-2.36 z"
   class="st7"
   id="path40"
   inkscape:connector-curvature="0"
   style="fill:#000000;fill-opacity:0.2;stroke:none;stroke-width:18.35960007;stroke-linecap:butt" />
			</g>
			<g
   id="shape2668-16"
   transform="translate(10.6299,-12.4016)">
				<title
   id="title43">path16</title>
				<path
   d="M 15.35,78.95 H 0 v 30.12 h 15.35 a 2.3687,2.3687 -180 0 0 2.37,-2.36 v -25.4 a 2.3687,2.3687 -180 0 0 -2.37,-2.36 z"
   class="st7"
   id="path45"
   inkscape:connector-curvature="0"
   style="fill:#000000;fill-opacity:0.2;stroke:none;stroke-width:18.35960007;stroke-linecap:butt" />
			</g>
			<g
   id="shape2669-18"
   transform="translate(0,-14.1732)">
				<title
   id="title48">rect18</title>
				<path
   d="m 0,106.71 a 2.36167,2.36167 -180 0 0 2.36,2.36 h 23.62 a 2.36167,2.36167 -180 0 0 2.37,-2.36 V 83.08 A 2.36167,2.36167 -180 0 0 25.98,80.72 H 2.36 A 2.36167,2.36167 -180 0 0 0,83.08 Z"
   class="st5"
   id="path50"
   inkscape:connector-curvature="0"
   style="fill:#bc1948;stroke:none;stroke-width:18.35960007;stroke-linecap:butt" />
			</g>
			<g
   id="shape2670-20"
   transform="translate(6.5126,-19.4882)">
				<title
   id="title53">path20</title>
				<path
   d="m 0,91.35 h 5.7 a 10.3837,10.3837 0 0 1 7.19,2.21 8.23642,8.23642 0 0 1 2.43,6.43 9.28346,9.28346 0 0 1 -1.2,4.77 8.13366,8.13366 0 0 1 -3.41,3.19 11.0906,11.0906 0 0 1 -5.11,1.12 H 0 Z m 5.62,14.86 a 6.74646,6.74646 -180 0 0 3.24,-0.73 4.95354,4.95354 -180 0 0 2.09,-2.13 7.07598,7.07598 -180 0 0 0.73,-3.3 5.75256,5.75256 -180 0 0 -1.55,-4.31 6.12815,6.12815 -180 0 0 -4.46,-1.51 H 3.46 v 11.98 z"
   class="st8"
   id="path55"
   inkscape:connector-curvature="0"
   style="fill:#ffffff;stroke:none;stroke-width:18.35960007;stroke-linecap:butt" />
			</g>
		</g>
	</g>
</svg>

<?xml version="1.0" encoding="UTF-8" standalone="no"?>
<!DOCTYPE svg PUBLIC "-//W3C//DTD SVG 1.1//EN" "http://www.w3.org/Graphics/SVG/1.1/DTD/svg11.dtd">
<!-- Generated by Microsoft Visio, SVG Export O365 - Delve.svg Page-1 -->
<svg xmlns="http://www.w3.org/2000/svg" xmlns:xlink="http://www.w3.org/1999/xlink" xmlns:ev="http://www.w3.org/2001/xml-events"
		width="1.29739in" height="1.51484in" viewBox="0 0 93.4122 109.068" xml:space="preserve" color-interpolation-filters="sRGB"
		class="st9">
	<style type="text/css">
	<![CDATA[
		.st1 {fill:#d23062;stroke:none;stroke-linecap:butt;stroke-width:18.3596}
		.st2 {fill:#8c193f;stroke:none;stroke-linecap:butt;stroke-width:18.3596}
		.st3 {fill:none;stroke:none;stroke-linecap:butt;stroke-width:18.3596}
		.st4 {fill:#e8467c;stroke:none;stroke-linecap:butt;stroke-width:18.3596}
		.st5 {fill:#bc1948;stroke:none;stroke-linecap:butt;stroke-width:18.3596}
		.st6 {fill:#000000;fill-opacity:0.098;stroke:none;stroke-linecap:butt;stroke-width:18.3596}
		.st7 {fill:#000000;fill-opacity:0.2;stroke:none;stroke-linecap:butt;stroke-width:18.3596}
		.st8 {fill:#ffffff;stroke:none;stroke-linecap:butt;stroke-width:18.3596}
		.st9 {fill:none;fill-rule:evenodd;font-size:12px;overflow:visible;stroke-linecap:square;stroke-miterlimit:3}
	]]>
	</style>

	<g>
		<title>Page-1</title>
		<g id="group2634-1" transform="translate(18.3596,-34.0157)">
			<title>O365 - Delve</title>
			<g id="shape2635-2" transform="translate(10.6299,-28.3465)">
				<title>path2</title>
				<path d="M42.52 86.62 A2.3563 2.3563 -180 0 0 40.16 84.27 L2.36 84.27 A2.3563 2.3563 -180 0 0 -0 86.62 L0 109.07
							 L42.52 109.07 L42.52 86.62 Z" class="st1"/>
			</g>
			<g id="shape2636-4" transform="translate(10.6299,-3.54331)">
				<title>path4</title>
				<path d="M0 84.27 L0 106.71 A2.3563 2.3563 -180 0 0 2.36 109.07 L40.16 109.07 A2.3563 2.3563 -180 0 0 42.52 106.71
							 L42.52 84.27 L0 84.27 Z" class="st2"/>
			</g>
			<g id="shape2637-6" transform="translate(9.84271E-08,0)">
				<title>path6</title>
				<rect x="0" y="52.3754" width="56.6929" height="56.6929" class="st3"/>
			</g>
			<g id="shape2638-8" transform="translate(10.6299,-10.6299)">
				<title>path8</title>
				<path d="M43.74 109.07 L0 109.07 L0 91.35 L42.52 91.35 L45.99 106.23 A2.31555 2.31555 0 0 1 43.74 109.07 Z"
						class="st4"/>
			</g>
			<g id="shape2639-10" transform="translate(10.6299,-28.3465)">
				<title>path10</title>
				<path d="M43.74 91.35 L0 91.35 L0 109.07 L42.52 109.07 L45.99 94.19 A2.31555 2.31555 -180 0 0 43.74 91.35 Z"
						class="st5"/>
			</g>
			<g id="shape2640-12" transform="translate(10.6299,-10.6299)">
				<title>path12</title>
				<path d="M18.9 75.41 L0 75.41 L0 109.07 L18.9 109.07 A2.3687 2.3687 -180 0 0 21.26 106.71 L21.26 77.77 A2.3687 2.3687
							 -180 0 0 18.9 75.41 Z" class="st6"/>
			</g>
			<g id="shape2641-14" transform="translate(10.6299,-12.4016)">
				<title>path14</title>
				<path d="M17.13 78.95 L0 78.95 L0 109.07 L17.13 109.07 A2.3687 2.3687 -180 0 0 19.49 106.71 L19.49 81.31 A2.3687
							 2.3687 -180 0 0 17.13 78.95 Z" class="st7"/>
			</g>
			<g id="shape2642-16" transform="translate(10.6299,-12.4016)">
				<title>path16</title>
				<path d="M15.35 78.95 L0 78.95 L0 109.07 L15.35 109.07 A2.3687 2.3687 -180 0 0 17.72 106.71 L17.72 81.31 A2.3687
							 2.3687 -180 0 0 15.35 78.95 Z" class="st7"/>
			</g>
			<g id="shape2643-18" transform="translate(0,-14.1732)">
				<title>rect18</title>
				<path d="M0 106.71 A2.36167 2.36167 -180 0 0 2.36 109.07 L25.98 109.07 A2.36167 2.36167 -180 0 0 28.35 106.71 L28.35
							 83.08 A2.36167 2.36167 -180 0 0 25.98 80.72 L2.36 80.72 A2.36167 2.36167 -180 0 0 -0 83.08 L0 106.71
							 Z" class="st5"/>
			</g>
			<g id="shape2644-20" transform="translate(6.5126,-19.4882)">
				<title>path20</title>
				<path d="M0 91.35 L5.7 91.35 A10.3837 10.3837 0 0 1 12.89 93.56 A8.23642 8.23642 0 0 1 15.32 99.99 A9.28346 9.28346
							 0 0 1 14.12 104.76 A8.13366 8.13366 0 0 1 10.71 107.95 A11.0906 11.0906 0 0 1 5.6 109.07 L0 109.07 L0
							 91.35 ZM5.62 106.21 A6.74646 6.74646 -180 0 0 8.86 105.48 A4.95354 4.95354 -180 0 0 10.95 103.35 A7.07598
							 7.07598 -180 0 0 11.68 100.05 A5.75256 5.75256 -180 0 0 10.13 95.74 A6.12815 6.12815 -180 0 0 5.67 94.23
							 L3.46 94.23 L3.46 106.21 L5.62 106.21 Z" class="st8"/>
			</g>
		</g>
	</g>
</svg>
